app/dist/common/images/phc.svg

<svg height="18" viewBox="0 0 18 18" width="18" xmlns="http://www.w3.org/2000/svg"><path d="m0 0h18v18h-18z" fill="#f0f3fa"/><g fill="#17469e"><path d="m7 7h1v1h2v-1h1v3h-1v-1h-2v1h-1z"/><path d="m3 7h2.5a1.5 1.5 0 1 1 0 3h-1.5v1h-1zm2.5 1h-1.5v1h1.5a.5.5 0 0 0 0-1zm7-1h2.5v1h-2.5a.5.5 0 0 0 0 1h2.5v1h-2.5a1.5 1.5 0 0 1 0-3z"/></g></svg>

<!-- by TradingView --><svg width="18" height="18" viewBox="0 0 18 18" xmlns="http://www.w3.org/2000/svg"><path fill="#F0F3FA" d="M0 0h18v18H0z"/><path d="M7 7h1v1h2V7h1v3h-1V9H8v1H7V7Z" fill="#17469E"/><path d="M3 7h2.5a1.5 1.5 0 1 1 0 3H4v1H3V7Zm2.5 1H4v1h1.5a.5.5 0 0 0 0-1ZM12.5 7H15v1h-2.5a.5.5 0 0 0 0 1H15v1h-2.5a1.5 1.5 0 0 1 0-3Z" fill="#17469E"/></svg>
